X:1
T: Belgia Retriev'd
N:
C:
S:
A:
O:
R:
M:3/2
K:Am
I:speed 200
%W: A1
% voice 1 (1 lines, 41 notes)
K:Am
M:3/2
L:1/16
A8 |A2 B2 c4 |B4 A4 |^G8 |G2 A2 B4 |E4 B4 |e8 |e2 ^f2 g4 |f4 e4 |e4 a8 |b4 ^g8 |a4 e8 |^f4 g4 |d4 g4 |d8 |e4 f4 |c4 d4 |G8 |c4 B2 |c2 d4 |d12 |c4 c8 |
%W: A2
% voice 1 (1 lines, 41 notes)
A8 |A2 B2 c4 |B4 A4 |^G8 |G2 A2 B4 |E4 B4 |e8 |e2 ^f2 g4 |f4 e4 |e4 a8 |b4 ^g8 |a4 e8 |^f4 g4 |d4 g4 |d8 |e4 f4 |c4 d4 |G8 |c4 B2 |c2 d4 |d12 |c4 c8 |
%W: B1
% voice 1 (1 lines, 42 notes)
e8 |e2 ^f2 g4 |g4 d4 |B8 |B2 c2 d4 |d4 B4 |c4 A8 |c'4 b4 |a4 ^g12 |a4 b4 |e4 B8 |B2 c2 d4 |d4 B4 |A6 |c2 B4 |A4 ^G4 |e4 a6 |^g2 a4 |e8 |d4 c12 |B2 A2 A8 |
%W: B2
% voice 1 (1 lines, 42 notes)
e8 |e2 ^f2 g4 |g4 d4 |B8 |B2 c2 d4 |d4 B4 |c4 A8 |c'4 b4 |a4 ^g12 |a4 b4 |e4 B8 |B2 c2 d4 |d4 B4 |A6 |c2 B4 |A4 ^G4 |e4 a6 |^g2 a4 |e8 |d4 c12 |B2 A2 A8 ||
